public/svgs/regular/mp3-player.svg

<svg xmlns="http://www.w3.org/2000/svg" viewBox="0 0 384 512"><!-- Font Awesome Pro 6.0.0-alpha2 by @fontawesome - https://fontawesome.com License - https://fontawesome.com/license (Commercial License) --><path d="M192 240C139 240 96 283 96 336S139 432 192 432S288 389 288 336S245 240 192 240ZM192 368C174.375 368 160 353.625 160 336S174.375 304 192 304S224 318.375 224 336S209.625 368 192 368ZM320 0H64C28.654 0 0 28.652 0 64V448C0 483.346 28.654 512 64 512H320C355.346 512 384 483.346 384 448V64C384 28.652 355.346 0 320 0ZM336 448C336 456.836 328.836 464 320 464H64C55.164 464 48 456.836 48 448V64C48 55.162 55.164 48 64 48H320C328.836 48 336 55.162 336 64V448ZM272 80H112C94.326 80 80 94.326 80 112V160C80 177.672 94.326 192 112 192H272C289.674 192 304 177.672 304 160V112C304 94.326 289.674 80 272 80Z"/></svg>

<svg xmlns="http://www.w3.org/2000/svg" viewBox="0 0 384 512"><!--! Font Awesome Pro 6.5.1 by @fontawesome - https://fontawesome.com License - https://fontawesome.com/license (Commercial License) Copyright 2023 Fonticons, Inc. --><path d="M320 48c8.8 0 16 7.2 16 16V448c0 8.8-7.2 16-16 16H64c-8.8 0-16-7.2-16-16V64c0-8.8 7.2-16 16-16H320zM64 0C28.7 0 0 28.7 0 64V448c0 35.3 28.7 64 64 64H320c35.3 0 64-28.7 64-64V64c0-35.3-28.7-64-64-64H64zM192 304a32 32 0 1 1 0 64 32 32 0 1 1 0-64zm0 128a96 96 0 1 0 0-192 96 96 0 1 0 0 192zM112 80c-17.7 0-32 14.3-32 32v48c0 17.7 14.3 32 32 32H272c17.7 0 32-14.3 32-32V112c0-17.7-14.3-32-32-32H112z"/></svg>
